X: 201155
T: Tom Billy's
S: "Johnny O'Leary of Sliabh Luachra" (#118)
Z: B.Black
L: 1/8
M: 12/8
R: slide
Q: 360
K: D
B|A2F AFF BGG BGG|AFF AFA BEE E2B|
AFF AFF BGG BGG|1 AFA B2c d3 c2 :|2\
AFA B2c d3 d2||
A|d2d ded cBB cBB|AFF AFA BEE EDE|
d2d ded cBB cBB|1 AFA B2c d3 d2 :|2\
AFA B2 c d3 c2||
